images/16759098.svg

<?xml version="1.0" encoding="UTF-8"?>
<svg xmlns="http://www.w3.org/2000/svg" xmlns:xlink="http://www.w3.org/1999/xlink" width="300pt" height="300pt" viewBox="0 0 300 300" version="1.1">
<defs>
<g>
<symbol overflow="visible" id="glyph0-0">
<path style="stroke:none;" d="M 0.453125 1.59375 L 0.453125 -6.34375 L 4.953125 -6.34375 L 4.953125 1.59375 Z M 0.953125 1.09375 L 4.453125 1.09375 L 4.453125 -5.84375 L 0.953125 -5.84375 Z M 0.953125 1.09375 "/>
</symbol>
<symbol overflow="visible" id="glyph0-1">
<path style="stroke:none;" d="M 3.546875 -5.953125 C 2.898438 -5.953125 2.382812 -5.710938 2 -5.234375 C 1.625 -4.753906 1.4375 -4.101562 1.4375 -3.28125 C 1.4375 -2.445312 1.625 -1.789062 2 -1.3125 C 2.382812 -0.832031 2.898438 -0.59375 3.546875 -0.59375 C 4.191406 -0.59375 4.703125 -0.832031 5.078125 -1.3125 C 5.453125 -1.789062 5.640625 -2.445312 5.640625 -3.28125 C 5.640625 -4.101562 5.453125 -4.753906 5.078125 -5.234375 C 4.703125 -5.710938 4.191406 -5.953125 3.546875 -5.953125 Z M 3.546875 -6.6875 C 4.460938 -6.6875 5.195312 -6.375 5.75 -5.75 C 6.300781 -5.132812 6.578125 -4.3125 6.578125 -3.28125 C 6.578125 -2.238281 6.300781 -1.410156 5.75 -0.796875 C 5.195312 -0.179688 4.460938 0.125 3.546875 0.125 C 2.617188 0.125 1.878906 -0.179688 1.328125 -0.796875 C 0.773438 -1.410156 0.5 -2.238281 0.5 -3.28125 C 0.5 -4.3125 0.773438 -5.132812 1.328125 -5.75 C 1.878906 -6.375 2.617188 -6.6875 3.546875 -6.6875 Z M 3.546875 -6.6875 "/>
</symbol>
<symbol overflow="visible" id="glyph0-2">
<path style="stroke:none;" d="M 1.765625 -3.140625 L 1.765625 -0.734375 L 3.1875 -0.734375 C 3.664062 -0.734375 4.019531 -0.832031 4.25 -1.03125 C 4.476562 -1.226562 4.59375 -1.53125 4.59375 -1.9375 C 4.59375 -2.34375 4.476562 -2.644531 4.25 -2.84375 C 4.019531 -3.039062 3.664062 -3.140625 3.1875 -3.140625 Z M 1.765625 -5.828125 L 1.765625 -3.859375 L 3.078125 -3.859375 C 3.515625 -3.859375 3.835938 -3.9375 4.046875 -4.09375 C 4.265625 -4.257812 4.375 -4.507812 4.375 -4.84375 C 4.375 -5.175781 4.265625 -5.421875 4.046875 -5.578125 C 3.835938 -5.742188 3.515625 -5.828125 3.078125 -5.828125 Z M 0.890625 -6.5625 L 3.15625 -6.5625 C 3.832031 -6.5625 4.351562 -6.421875 4.71875 -6.140625 C 5.082031 -5.859375 5.265625 -5.457031 5.265625 -4.9375 C 5.265625 -4.539062 5.171875 -4.222656 4.984375 -3.984375 C 4.796875 -3.742188 4.519531 -3.59375 4.15625 -3.53125 C 4.59375 -3.4375 4.929688 -3.238281 5.171875 -2.9375 C 5.410156 -2.644531 5.53125 -2.28125 5.53125 -1.84375 C 5.53125 -1.25 5.332031 -0.789062 4.9375 -0.46875 C 4.539062 -0.15625 3.972656 0 3.234375 0 L 0.890625 0 Z M 0.890625 -6.5625 "/>
</symbol>
<symbol overflow="visible" id="glyph0-3">
<path style="stroke:none;" d="M 3.703125 -4.171875 C 3.609375 -4.222656 3.507812 -4.257812 3.40625 -4.28125 C 3.300781 -4.300781 3.179688 -4.3125 3.046875 -4.3125 C 2.585938 -4.3125 2.234375 -4.160156 1.984375 -3.859375 C 1.742188 -3.566406 1.625 -3.144531 1.625 -2.59375 L 1.625 0 L 0.8125 0 L 0.8125 -4.921875 L 1.625 -4.921875 L 1.625 -4.15625 C 1.800781 -4.457031 2.023438 -4.679688 2.296875 -4.828125 C 2.566406 -4.972656 2.894531 -5.046875 3.28125 -5.046875 C 3.34375 -5.046875 3.40625 -5.039062 3.46875 -5.03125 C 3.539062 -5.019531 3.617188 -5.007812 3.703125 -5 Z M 3.703125 -4.171875 "/>
</symbol>
</g>
</defs>
<g id="surface40341">
<rect x="0" y="0" width="300" height="300" style="fill:rgb(100%,100%,100%);fill-opacity:1;stroke:none;"/>
<path style="fill:none;stroke-width:1.2;stroke-linecap:butt;stroke-linejoin:miter;stroke:rgb(0%,0%,0%);stroke-opacity:1;stroke-miterlimit:10;" d="M 35.25 174.464844 L 49.746094 164.546875 "/>
<path style="fill:none;stroke-width:1.2;stroke-linecap:butt;stroke-linejoin:miter;stroke:rgb(0%,0%,0%);stroke-opacity:1;stroke-miterlimit:10;" d="M 49.746094 164.546875 L 64.246094 154.632812 "/>
<path style="fill:none;stroke-width:1.2;stroke-linecap:butt;stroke-linejoin:miter;stroke:rgb(0%,0%,0%);stroke-opacity:1;stroke-miterlimit:10;" d="M 53.53125 166.96875 L 65.128906 159.035156 "/>
<path style="fill:none;stroke-width:1.2;stroke-linecap:butt;stroke-linejoin:miter;stroke:rgb(0%,0%,0%);stroke-opacity:1;stroke-miterlimit:10;" d="M 48.863281 160.144531 L 60.460938 152.214844 "/>
<path style="fill:none;stroke-width:1.2;stroke-linecap:butt;stroke-linejoin:miter;stroke:rgb(0%,0%,0%);stroke-opacity:1;stroke-miterlimit:10;" d="M 64.246094 154.632812 L 78.742188 144.71875 "/>
<path style="fill:none;stroke-width:1.2;stroke-linecap:butt;stroke-linejoin:miter;stroke:rgb(0%,0%,0%);stroke-opacity:1;stroke-miterlimit:10;" d="M 78.742188 144.71875 L 77.40625 127.207031 "/>
<path style="fill:none;stroke-width:1.2;stroke-linecap:butt;stroke-linejoin:miter;stroke:rgb(0%,0%,0%);stroke-opacity:1;stroke-miterlimit:10;" d="M 78.742188 144.71875 L 94.578125 152.316406 "/>
<path style="fill:none;stroke-width:1.2;stroke-linecap:butt;stroke-linejoin:miter;stroke:rgb(0%,0%,0%);stroke-opacity:1;stroke-miterlimit:10;" d="M 94.578125 152.316406 L 109.074219 142.402344 "/>
<path style="fill:none;stroke-width:1.2;stroke-linecap:butt;stroke-linejoin:miter;stroke:rgb(0%,0%,0%);stroke-opacity:1;stroke-miterlimit:10;" d="M 94.578125 152.316406 L 95.246094 161.074219 "/>
<path style="fill:none;stroke-width:1.2;stroke-linecap:butt;stroke-linejoin:miter;stroke:rgb(100%,0%,0%);stroke-opacity:1;stroke-miterlimit:10;" d="M 95.246094 161.074219 L 95.914062 169.828125 "/>
<path style="fill:none;stroke-width:1.2;stroke-linecap:butt;stroke-linejoin:miter;stroke:rgb(0%,0%,0%);stroke-opacity:1;stroke-miterlimit:10;" d="M 109.074219 142.402344 L 124.910156 150 "/>
<path style="fill:none;stroke-width:1.2;stroke-linecap:butt;stroke-linejoin:miter;stroke:rgb(0%,0%,0%);stroke-opacity:1;stroke-miterlimit:10;" d="M 109.074219 142.402344 L 108.40625 133.644531 "/>
<path style="fill:none;stroke-width:1.2;stroke-linecap:butt;stroke-linejoin:miter;stroke:rgb(100%,0%,0%);stroke-opacity:1;stroke-miterlimit:10;" d="M 108.40625 133.644531 L 107.738281 124.890625 "/>
<path style="fill:none;stroke-width:1.2;stroke-linecap:butt;stroke-linejoin:miter;stroke:rgb(0%,0%,0%);stroke-opacity:1;stroke-miterlimit:10;" d="M 124.910156 150 L 139.40625 140.085938 "/>
<path style="fill:none;stroke-width:1.2;stroke-linecap:butt;stroke-linejoin:miter;stroke:rgb(0%,0%,0%);stroke-opacity:1;stroke-miterlimit:10;" d="M 139.40625 140.085938 L 138.070312 122.574219 "/>
<path style="fill:none;stroke-width:1.2;stroke-linecap:butt;stroke-linejoin:miter;stroke:rgb(0%,0%,0%);stroke-opacity:1;stroke-miterlimit:10;" d="M 139.40625 140.085938 L 155.242188 147.683594 "/>
<path style="fill:none;stroke-width:1.2;stroke-linecap:butt;stroke-linejoin:miter;stroke:rgb(0%,0%,0%);stroke-opacity:1;stroke-miterlimit:10;" d="M 155.242188 147.683594 L 169.738281 137.769531 "/>
<path style="fill:none;stroke-width:1.2;stroke-linecap:butt;stroke-linejoin:miter;stroke:rgb(0%,0%,0%);stroke-opacity:1;stroke-miterlimit:10;" d="M 169.738281 137.769531 L 168.402344 120.257812 "/>
<path style="fill:none;stroke-width:1.2;stroke-linecap:butt;stroke-linejoin:miter;stroke:rgb(0%,0%,0%);stroke-opacity:1;stroke-miterlimit:10;" d="M 173.726562 135.703125 L 172.65625 121.691406 "/>
<path style="fill:none;stroke-width:1.2;stroke-linecap:butt;stroke-linejoin:miter;stroke:rgb(0%,0%,0%);stroke-opacity:1;stroke-miterlimit:10;" d="M 185.574219 145.367188 L 169.738281 137.769531 "/>
<path style="fill:none;stroke-width:1.2;stroke-linecap:butt;stroke-linejoin:miter;stroke:rgb(0%,0%,0%);stroke-opacity:1;stroke-miterlimit:10;" d="M 168.402344 120.257812 L 182.898438 110.339844 "/>
<path style="fill:none;stroke-width:1.2;stroke-linecap:butt;stroke-linejoin:miter;stroke:rgb(0%,0%,0%);stroke-opacity:1;stroke-miterlimit:10;" d="M 182.898438 110.339844 L 198.734375 117.9375 "/>
<path style="fill:none;stroke-width:1.2;stroke-linecap:butt;stroke-linejoin:miter;stroke:rgb(0%,0%,0%);stroke-opacity:1;stroke-miterlimit:10;" d="M 182.695312 114.828125 L 195.363281 120.90625 "/>
<path style="fill:none;stroke-width:1.2;stroke-linecap:butt;stroke-linejoin:miter;stroke:rgb(0%,0%,0%);stroke-opacity:1;stroke-miterlimit:10;" d="M 182.898438 110.339844 L 182.230469 101.585938 "/>
<path style="fill:none;stroke-width:1.2;stroke-linecap:butt;stroke-linejoin:miter;stroke:rgb(50%,30%,10%);stroke-opacity:1;stroke-miterlimit:10;" d="M 182.230469 101.585938 L 181.5625 92.828125 "/>
<path style="fill:none;stroke-width:1.2;stroke-linecap:butt;stroke-linejoin:miter;stroke:rgb(0%,0%,0%);stroke-opacity:1;stroke-miterlimit:10;" d="M 198.734375 117.9375 L 200.070312 135.453125 "/>
<path style="fill:none;stroke-width:1.2;stroke-linecap:butt;stroke-linejoin:miter;stroke:rgb(0%,0%,0%);stroke-opacity:1;stroke-miterlimit:10;" d="M 200.070312 135.453125 L 185.574219 145.367188 "/>
<path style="fill:none;stroke-width:1.2;stroke-linecap:butt;stroke-linejoin:miter;stroke:rgb(0%,0%,0%);stroke-opacity:1;stroke-miterlimit:10;" d="M 196.289062 133.03125 L 184.691406 140.964844 "/>
<path style="fill:none;stroke-width:1.2;stroke-linecap:butt;stroke-linejoin:miter;stroke:rgb(0%,0%,0%);stroke-opacity:1;stroke-miterlimit:10;" d="M 200.070312 135.453125 L 207.988281 139.25 "/>
<path style="fill:none;stroke-width:1.2;stroke-linecap:butt;stroke-linejoin:miter;stroke:rgb(100%,0%,0%);stroke-opacity:1;stroke-miterlimit:10;" d="M 207.988281 139.25 L 215.90625 143.050781 "/>
<path style="fill:none;stroke-width:1.2;stroke-linecap:butt;stroke-linejoin:miter;stroke:rgb(0%,0%,0%);stroke-opacity:1;stroke-miterlimit:10;" d="M 185.574219 145.367188 L 186.242188 154.121094 "/>
<path style="fill:none;stroke-width:1.2;stroke-linecap:butt;stroke-linejoin:miter;stroke:rgb(100%,0%,0%);stroke-opacity:1;stroke-miterlimit:10;" d="M 186.242188 154.121094 L 186.914062 162.878906 "/>
<path style="fill:none;stroke-width:1.2;stroke-linecap:butt;stroke-linejoin:miter;stroke:rgb(100%,0%,0%);stroke-opacity:1;stroke-miterlimit:10;" d="M 186.914062 162.878906 L 179.664062 167.835938 "/>
<path style="fill:none;stroke-width:1.2;stroke-linecap:butt;stroke-linejoin:miter;stroke:rgb(0%,0%,0%);stroke-opacity:1;stroke-miterlimit:10;" d="M 179.664062 167.835938 L 172.414062 172.792969 "/>
<path style=" stroke:none;fill-rule:nonzero;fill:rgb(100%,100%,100%);fill-opacity:1;" d="M 182.914062 157.378906 L 190.914062 157.378906 L 190.914062 168.378906 L 182.914062 168.378906 Z M 182.914062 157.378906 "/>
<g style="fill:rgb(100%,0%,0%);fill-opacity:1;">
  <use xlink:href="#glyph0-1" x="182.914062" y="166.041992"/>
</g>
<path style="fill:none;stroke-width:1.2;stroke-linecap:butt;stroke-linejoin:miter;stroke:rgb(100%,0%,0%);stroke-opacity:1;stroke-miterlimit:10;" d="M 215.90625 143.050781 L 216.574219 151.804688 "/>
<path style="fill:none;stroke-width:1.2;stroke-linecap:butt;stroke-linejoin:miter;stroke:rgb(0%,0%,0%);stroke-opacity:1;stroke-miterlimit:10;" d="M 216.574219 151.804688 L 217.246094 160.5625 "/>
<path style=" stroke:none;fill-rule:nonzero;fill:rgb(100%,100%,100%);fill-opacity:1;" d="M 211.90625 137.550781 L 219.90625 137.550781 L 219.90625 148.550781 L 211.90625 148.550781 Z M 211.90625 137.550781 "/>
<g style="fill:rgb(100%,0%,0%);fill-opacity:1;">
  <use xlink:href="#glyph0-1" x="211.90625" y="146.213867"/>
</g>
<path style="fill:none;stroke-width:1.2;stroke-linecap:butt;stroke-linejoin:miter;stroke:rgb(0%,0%,0%);stroke-opacity:1;stroke-miterlimit:10;" d="M 217.246094 160.5625 L 233.078125 168.160156 "/>
<path style="fill:none;stroke-width:1.2;stroke-linecap:butt;stroke-linejoin:miter;stroke:rgb(0%,0%,0%);stroke-opacity:1;stroke-miterlimit:10;" d="M 233.078125 168.160156 L 234.417969 185.671875 "/>
<path style="fill:none;stroke-width:1.2;stroke-linecap:butt;stroke-linejoin:miter;stroke:rgb(0%,0%,0%);stroke-opacity:1;stroke-miterlimit:10;" d="M 237.335938 169.597656 L 238.40625 183.605469 "/>
<path style="fill:none;stroke-width:1.2;stroke-linecap:butt;stroke-linejoin:miter;stroke:rgb(0%,0%,0%);stroke-opacity:1;stroke-miterlimit:10;" d="M 247.578125 158.246094 L 233.078125 168.160156 "/>
<path style="fill:none;stroke-width:1.2;stroke-linecap:butt;stroke-linejoin:miter;stroke:rgb(0%,0%,0%);stroke-opacity:1;stroke-miterlimit:10;" d="M 234.417969 185.671875 L 250.253906 193.269531 "/>
<path style="fill:none;stroke-width:1.2;stroke-linecap:butt;stroke-linejoin:miter;stroke:rgb(0%,0%,0%);stroke-opacity:1;stroke-miterlimit:10;" d="M 250.253906 193.269531 L 264.75 183.355469 "/>
<path style="fill:none;stroke-width:1.2;stroke-linecap:butt;stroke-linejoin:miter;stroke:rgb(0%,0%,0%);stroke-opacity:1;stroke-miterlimit:10;" d="M 249.371094 188.867188 L 260.96875 180.9375 "/>
<path style="fill:none;stroke-width:1.2;stroke-linecap:butt;stroke-linejoin:miter;stroke:rgb(0%,0%,0%);stroke-opacity:1;stroke-miterlimit:10;" d="M 264.75 183.355469 L 263.414062 165.84375 "/>
<path style="fill:none;stroke-width:1.2;stroke-linecap:butt;stroke-linejoin:miter;stroke:rgb(0%,0%,0%);stroke-opacity:1;stroke-miterlimit:10;" d="M 263.414062 165.84375 L 247.578125 158.246094 "/>
<path style="fill:none;stroke-width:1.2;stroke-linecap:butt;stroke-linejoin:miter;stroke:rgb(0%,0%,0%);stroke-opacity:1;stroke-miterlimit:10;" d="M 260.042969 168.808594 L 247.375 162.730469 "/>
<path style=" stroke:none;fill-rule:nonzero;fill:rgb(100%,100%,100%);fill-opacity:1;" d="M 176.5625 87.328125 L 187.5625 87.328125 L 187.5625 98.328125 L 176.5625 98.328125 Z M 176.5625 87.328125 "/>
<g style="fill:rgb(50%,30%,10%);fill-opacity:1;">
  <use xlink:href="#glyph0-2" x="176.5625" y="95.991211"/>
  <use xlink:href="#glyph0-3" x="182.961914" y="95.991211"/>
</g>
<path style="fill:none;stroke-width:1.2;stroke-linecap:butt;stroke-linejoin:miter;stroke:rgb(100%,0%,0%);stroke-opacity:1;stroke-miterlimit:10;" d="M 107.738281 124.890625 L 99.820312 121.089844 "/>
<path style="fill:none;stroke-width:1.2;stroke-linecap:butt;stroke-linejoin:miter;stroke:rgb(0%,0%,0%);stroke-opacity:1;stroke-miterlimit:10;" d="M 99.820312 121.089844 L 91.902344 117.292969 "/>
<path style=" stroke:none;fill-rule:nonzero;fill:rgb(100%,100%,100%);fill-opacity:1;" d="M 103.738281 119.390625 L 111.738281 119.390625 L 111.738281 130.390625 L 103.738281 130.390625 Z M 103.738281 119.390625 "/>
<g style="fill:rgb(100%,0%,0%);fill-opacity:1;">
  <use xlink:href="#glyph0-1" x="103.738281" y="128.053711"/>
</g>
<path style="fill:none;stroke-width:1.2;stroke-linecap:butt;stroke-linejoin:miter;stroke:rgb(100%,0%,0%);stroke-opacity:1;stroke-miterlimit:10;" d="M 95.914062 169.828125 L 88.667969 174.785156 "/>
<path style="fill:none;stroke-width:1.2;stroke-linecap:butt;stroke-linejoin:miter;stroke:rgb(0%,0%,0%);stroke-opacity:1;stroke-miterlimit:10;" d="M 88.667969 174.785156 L 81.417969 179.742188 "/>
<path style=" stroke:none;fill-rule:nonzero;fill:rgb(100%,100%,100%);fill-opacity:1;" d="M 91.914062 164.328125 L 99.914062 164.328125 L 99.914062 175.328125 L 91.914062 175.328125 Z M 91.914062 164.328125 "/>
<g style="fill:rgb(100%,0%,0%);fill-opacity:1;">
  <use xlink:href="#glyph0-1" x="91.914062" y="172.991211"/>
</g>
<path style="fill:none;stroke-width:1.2;stroke-linecap:butt;stroke-linejoin:miter;stroke:rgb(0%,0%,0%);stroke-opacity:1;stroke-miterlimit:10;" d="M 81.417969 179.742188 L 82.085938 188.5 "/>
<path style="fill:none;stroke-width:1.2;stroke-linecap:butt;stroke-linejoin:miter;stroke:rgb(100%,0%,0%);stroke-opacity:1;stroke-miterlimit:10;" d="M 82.085938 188.5 L 82.753906 197.257812 "/>
<path style="fill:none;stroke-width:1.2;stroke-linecap:butt;stroke-linejoin:miter;stroke:rgb(100%,0%,0%);stroke-opacity:1;stroke-miterlimit:10;" d="M 82.753906 197.257812 L 75.507812 202.214844 "/>
<path style="fill:none;stroke-width:1.2;stroke-linecap:butt;stroke-linejoin:miter;stroke:rgb(0%,0%,0%);stroke-opacity:1;stroke-miterlimit:10;" d="M 75.507812 202.214844 L 68.257812 207.171875 "/>
<path style=" stroke:none;fill-rule:nonzero;fill:rgb(100%,100%,100%);fill-opacity:1;" d="M 78.753906 191.757812 L 86.753906 191.757812 L 86.753906 202.757812 L 78.753906 202.757812 Z M 78.753906 191.757812 "/>
<g style="fill:rgb(100%,0%,0%);fill-opacity:1;">
  <use xlink:href="#glyph0-1" x="78.753906" y="200.420898"/>
</g>
</g>
</svg>

<svg xmlns="http://www.w3.org/2000/svg" xmlns:xlink="http://www.w3.org/1999/xlink" width="300pt" height="300pt" viewBox="0 0 300 300"><defs><symbol overflow="visible"><path d="M.453 1.594v-7.938h4.5v7.938zm.5-.5h3.5v-6.938h-3.5zm0 0"/></symbol><symbol overflow="visible" id="a"><path d="M3.547-5.953c-.65 0-1.164.242-1.547.72-.375.48-.563 1.13-.563 1.952 0 .835.188 1.49.563 1.967.383.48.898.72 1.547.72.644 0 1.156-.24 1.53-.72.376-.476.564-1.132.564-1.968 0-.822-.187-1.474-.562-1.954-.375-.477-.887-.72-1.53-.72zm0-.734c.914 0 1.648.312 2.203.937.55.617.828 1.438.828 2.47 0 1.042-.277 1.87-.828 2.483-.555.617-1.29.922-2.203.922-.93 0-1.668-.305-2.22-.922C.774-1.41.5-2.237.5-3.28c0-1.033.273-1.853.828-2.47.55-.625 1.29-.938 2.22-.938zm0 0"/></symbol><symbol overflow="visible" id="b"><path d="M1.766-3.14v2.406h1.421c.477 0 .833-.098 1.063-.297.227-.197.344-.5.344-.907 0-.407-.117-.708-.344-.907-.23-.195-.586-.297-1.063-.297zm0-2.688v1.97h1.312c.438 0 .758-.08.97-.236.218-.164.327-.414.327-.75 0-.332-.11-.578-.328-.734-.21-.164-.53-.25-.97-.25zM.89-6.562h2.266c.676 0 1.196.14 1.563.42.362.283.546.685.546 1.205 0 .398-.094.714-.282.953-.187.242-.464.39-.828.453.438.092.774.292 1.016.592.238.293.36.657.36 1.094 0 .594-.2 1.055-.595 1.375-.398.314-.964.47-1.703.47H.89zm0 0"/></symbol><symbol overflow="visible" id="c"><path d="M3.703-4.172c-.094-.05-.195-.086-.297-.11-.105-.02-.226-.03-.36-.03-.46 0-.812.152-1.062.453-.242.294-.36.715-.36 1.266V0H.813v-4.922h.813v.766c.176-.3.398-.524.672-.672.27-.145.598-.22.984-.22.064 0 .126.01.19.017.07.01.147.022.233.03zm0 0"/></symbol></defs><g><path fill="#fff" d="M0 0h300v300H0z"/><path d="M35.25 174.465l14.496-9.918M49.746 164.547l14.5-9.914M53.53 166.97l11.6-7.935M48.863 160.145l11.598-7.93M64.246 154.633l14.496-9.914M78.742 144.72l-1.336-17.513M78.742 144.72l15.836 7.596M94.578 152.316l14.496-9.914M94.578 152.316l.668 8.758" stroke-width="1.2" stroke="#000" stroke-miterlimit="10" fill="none"/><path d="M95.246 161.074l.668 8.754" stroke-width="1.2" stroke="#f00" stroke-miterlimit="10" fill="none"/><path d="M109.074 142.402L124.91 150M109.074 142.402l-.668-8.757" stroke-width="1.2" stroke="#000" stroke-miterlimit="10" fill="none"/><path d="M108.406 133.645l-.668-8.754" stroke-width="1.2" stroke="#f00" stroke-miterlimit="10" fill="none"/><path d="M124.91 150l14.496-9.914M139.406 140.086l-1.336-17.512M139.406 140.086l15.836 7.598M155.242 147.684l14.496-9.914M169.738 137.77l-1.336-17.512M173.727 135.703l-1.07-14.012M185.574 145.367l-15.836-7.597M168.402 120.258l14.496-9.918M182.898 110.34l15.836 7.597M182.695 114.828l12.668 6.078M182.898 110.34l-.668-8.754" stroke-width="1.2" stroke="#000" stroke-miterlimit="10" fill="none"/><path d="M182.23 101.586l-.667-8.758" stroke-width="1.2" stroke="#7f4d1a" stroke-miterlimit="10" fill="none"/><path d="M198.734 117.938l1.336 17.515M200.07 135.453l-14.496 9.914M196.29 133.03l-11.6 7.935M200.07 135.453l7.918 3.797" stroke-width="1.2" stroke="#000" stroke-miterlimit="10" fill="none"/><path d="M207.988 139.25l7.918 3.8" stroke-width="1.2" stroke="#f00" stroke-miterlimit="10" fill="none"/><path d="M185.574 145.367l.668 8.754" stroke-width="1.2" stroke="#000" stroke-miterlimit="10" fill="none"/><path d="M186.242 154.12l.672 8.76M186.914 162.88l-7.25 4.956" stroke-width="1.2" stroke="#f00" stroke-miterlimit="10" fill="none"/><path d="M179.664 167.836l-7.25 4.957" stroke-width="1.2" stroke="#000" stroke-miterlimit="10" fill="none"/><path d="M182.914 157.38h8v11h-8zm0 0" fill="#fff"/><use xlink:href="#a" x="182.914" y="166.042" fill="#f00"/><path d="M215.906 143.05l.668 8.755" stroke-width="1.2" stroke="#f00" stroke-miterlimit="10" fill="none"/><path d="M216.574 151.805l.672 8.757" stroke-width="1.2" stroke="#000" stroke-miterlimit="10" fill="none"/><path d="M211.906 137.55h8v11h-8zm0 0" fill="#fff"/><use xlink:href="#a" x="211.906" y="146.214" fill="#f00"/><path d="M217.246 160.563l15.832 7.597M233.078 168.16l1.34 17.512M237.336 169.598l1.07 14.007M247.578 158.246l-14.5 9.914M234.418 185.672l15.836 7.598M250.254 193.27l14.496-9.915M249.37 188.867l11.6-7.93M264.75 183.355l-1.336-17.51M263.414 165.844l-15.836-7.598M260.043 168.81l-12.668-6.08" stroke-width="1.2" stroke="#000" stroke-miterlimit="10" fill="none"/><path d="M176.563 87.328h11v11h-11zm0 0" fill="#fff"/><g fill="#7f4d1a"><use xlink:href="#b" x="176.563" y="95.991"/><use xlink:href="#c" x="182.962" y="95.991"/></g><path d="M107.738 124.89l-7.918-3.8" stroke-width="1.2" stroke="#f00" stroke-miterlimit="10" fill="none"/><path d="M99.82 121.09l-7.918-3.797" stroke-width="1.2" stroke="#000" stroke-miterlimit="10" fill="none"/><path d="M103.738 119.39h8v11h-8zm0 0" fill="#fff"/><use xlink:href="#a" x="103.738" y="128.054" fill="#f00"/><path d="M95.914 169.828l-7.246 4.957" stroke-width="1.2" stroke="#f00" stroke-miterlimit="10" fill="none"/><path d="M88.668 174.785l-7.25 4.957" stroke-width="1.2" stroke="#000" stroke-miterlimit="10" fill="none"/><path d="M91.914 164.328h8v11h-8zm0 0" fill="#fff"/><use xlink:href="#a" x="91.914" y="172.991" fill="#f00"/><path d="M81.418 179.742l.668 8.758" stroke-width="1.2" stroke="#000" stroke-miterlimit="10" fill="none"/><path d="M82.086 188.5l.668 8.758M82.754 197.258l-7.246 4.957" stroke-width="1.2" stroke="#f00" stroke-miterlimit="10" fill="none"/><path d="M75.508 202.215l-7.25 4.957" stroke-width="1.2" stroke="#000" stroke-miterlimit="10" fill="none"/><path d="M78.754 191.758h8v11h-8zm0 0" fill="#fff"/><use xlink:href="#a" x="78.754" y="200.421" fill="#f00"/></g></svg>
